assets/icons/bowtie/uE61E-comment-lines.svg

<svg xmlns="http://www.w3.org/2000/svg" viewBox="0 0 448 448"><path d="M64 443.938v-91.938h-64v-320h416v320h-249.86l-102.14 91.938zm-32-123.938h64v52.063l57.86-52.063h230.14v-256h-352v256zm288-192h-224v32h224v-32zm-64 64h-160v32h160v-32z"/></svg>

<svg xmlns="http://www.w3.org/2000/svg" viewBox="0 0 448 448"><path d="M64 443.938V352H0V32h416v320H166.14L64 443.938zM32 320h64v52.063L153.86 320H384V64H32v256zm288-192H96v32h224v-32zm-64 64H96v32h160v-32z"/></svg>
